Obsidian-SemiLight/actions/24s/format-insert-node.svg

<svg viewBox="0 0 24 24" xmlns="http://www.w3.org/2000/svg"><path d="m10 10v1h-6v1h6v2h4v-2h6v-1h-6v-1zm1 1h2v1 1h-2z" fill="#4d4d4d"/><path d="m17 15v2h-2v1h2v2h1v-2h2v-1h-2v-2z" fill="#3daee9"/></svg>

<svg xmlns="http://www.w3.org/2000/svg" viewBox="0 0 24 24">
  <defs id="defs3051">
    <style type="text/css" id="current-color-scheme">
      .ColorScheme-Text {
        color:#4d4d4d;
      }
      .ColorScheme-Highlight {
        color:#3daee9;
      }
      </style>
  </defs>
 <path 
     style="fill:currentColor;fill-opacity:1;stroke:none" 
     d="M 10 10 L 10 11 L 4 11 L 4 12 L 10 12 L 10 14 L 14 14 L 14 12 L 20 12 L 20 11 L 14 11 L 14 10 L 10 10 z M 11 11 L 13 11 L 13 12 L 13 13 L 11 13 L 11 11 z "
     class="ColorScheme-Text"
     />
 <path 
     style="fill:currentColor;fill-opacity:1;stroke:none" 
     d="M 17 15 L 17 17 L 15 17 L 15 18 L 17 18 L 17 20 L 18 20 L 18 18 L 20 18 L 20 17 L 18 17 L 18 15 L 17 15 z "
     class="ColorScheme-Highlight"
     />
</svg>
